X:1
T:[ID 2-52b]
T:[ID 2-52b]
T:Bezeichnung standardisiert: Menuett Men\"uet 12
T:Urheber unbekannt Datum in der hier transkribierten schriftlichen Quelle: 1767
C:Urheber unbekannt
C:Datum in der hier transkribierten schriftlichen Quelle: 1767
L:1/8
M:3/4
K:D
V:1 treble 
V:1
 f2 dFGE | F2 E2 D2 | f2 dFGE | F4 D2 | GGBddB | DDFAdf | C2 e2 d2 | c6 :: c2 ACDB, | CE A2 c2 | %10
 c2 ACDB, | C6 | (3efg fedc | (3def edGF | GA F2 E2 | F6 :| %16

